X:1
T:Dies Sind die Heil’gen
T:Dies Sind die Heil’gen
T:German melody, circa 1200
T:Public Domain Courtesy of the Cyber Hymnal™
C:German melody, circa 1200
Z:Public Domain
Z:Courtesy of the Cyber Hymnal™
%%score ( 1 2 ) ( 3 4 )
L:1/8
M:4/4
K:C
V:1 treble 
V:2 treble 
V:3 bass 
V:4 bass 
V:1
 [DG]2 [EG]2 [EG]2 | [DG]2 [EG]2 ([DG][CA]) [DB]2 | [Ec]6 [Ec]2 | [Gd]2 [Fd]2 [Ec]2 G2 | %4
 [FA]2 [FB]2 [Ec]4- | [Ec]2 [Fc]2 [Fd]2 [Fd]2 | [Ec]2 [EG]2 [CA]2 [EG]2 | F6 F2 | %8
 [CA]2 [FB]2 [Ec]4 | [D_B]2 [_EG]2 [DB]3 [DA] | [DG]2 [CG]2 [B,G]4 |] %11
V:2
 x6 | x8 | x8 | x8 | x8 | x8 | x8 | F6 F2 | x8 | x8 | x8 |] %11
V:3
 [G,B,]2 [E,B,]2 [C,C]2 | [G,B,]2 [C,C]2 G,2 [G,,G,]2 | [C,G,]6 [C,G,]2 | %3
 [G,B,]2 [D,A,]2 A,2 [E,C]2 | [F,C]2 [D,G,]2 [C,G,]4- | [C,G,]2 [F,A,]2 [D,A,]2 [D,B,]2 | %6
 [A,C]2 [E,B,]2 [F,A,]2 [C,C]2 | [F,,A,]6 [D,A,]2 | F,2 [D,G,]2 [C,G,]4 | %9
 [G,,G,]2 [C,G,]2 [G,,G,]3 [D,^F,] | (G,F,) [C,E,]2 [G,,D,]4 |] %11
V:4
 x6 | x4 (B,,A,,) x2 | x8 | x8 | x8 | x8 | x8 | x8 | F,2 x6 | x8 | B,,2 x6 |] %11

